X: 2362
T: BEAUTIFUL SWANEE RIVER
R: Hornpipe.
%R: hornpipe, reel
B: James Kerr "Merry Melodies" v.2 p.40 #362
Z: 2016 John Chambers <jc:trillian.mit.edu>
M: C
L: 1/8
K: G
(3(uDEF) |:\
G2(GD) B,DGA | B2(BG) DGBd | e2(ef) \
[1 gedB | edBG AGEF :|\
[2 gedc | BAGF G2 ||
|: (dc) |\
BGBd BGBd | cAce cAce |\
[1 dBdg agdB | fecA FD :|\
[2 dgba gfef | g2({a}gf)g2 |]
